dist/assets/images/icons/eye.svg

<svg width="24" height="24" viewBox="0 0 24 24" fill="none" xmlns="http://www.w3.org/2000/svg">
<path d="M16.7944 13.6001C16.9859 13.0885 17.083 12.5464 17.0811 12.0001C17.0811 10.7872 16.5992 9.62392 15.7416 8.76626C14.8839 7.90859 13.7207 7.42676 12.5077 7.42676C11.9682 7.42739 11.4331 7.52447 10.9277 7.71342L12.0011 8.82009C12.1642 8.79399 12.3292 8.78061 12.4944 8.78009C13.352 8.7783 14.1755 9.11592 14.7851 9.71922C15.3946 10.3225 15.7407 11.1425 15.7477 12.0001C15.7472 12.1653 15.7338 12.3303 15.7077 12.4934L16.7944 13.6001Z" fill="#101112"/>
<path d="M22.8603 11.6862C20.6136 7.53287 16.6736 5.01953 12.3136 5.01953C11.1265 5.02232 9.94742 5.21359 8.82031 5.5862L9.89365 6.6662C10.6842 6.46188 11.4971 6.35663 12.3136 6.35286C16.067 6.35286 19.4803 8.4462 21.5136 11.9729C20.7678 13.2813 19.7789 14.4353 18.6003 15.3729L19.547 16.3195C20.911 15.2191 22.0439 13.8597 22.8803 12.3195L23.0536 11.9995L22.8603 11.6862Z" fill="#101112"/>
<path d="M3.24594 3.85369L6.21927 6.82702C4.33988 8.03709 2.80387 9.71086 1.75927 11.687L1.58594 12.0004L1.75927 12.3204C4.00594 16.4737 7.94594 18.987 12.3059 18.987C14.0077 18.9867 15.6874 18.6015 17.2193 17.8604L20.5526 21.1937L21.7193 20.1937L4.38594 2.86035L3.24594 3.85369ZM9.74594 10.3537L14.1793 14.787C13.6784 15.0971 13.1017 15.2632 12.5126 15.267C12.0846 15.267 11.6607 15.1824 11.2655 15.018C10.8703 14.8536 10.5115 14.6126 10.2098 14.309C9.90802 14.0054 9.66929 13.6452 9.50731 13.2489C9.34533 12.8527 9.2633 12.4284 9.26594 12.0004C9.27345 11.4181 9.43939 10.8488 9.74594 10.3537ZM8.77927 9.38702C8.15556 10.2666 7.86322 11.3385 7.95401 12.413C8.04481 13.4875 8.51288 14.4951 9.27534 15.2576C10.0378 16.0201 11.0455 16.4881 12.1199 16.5789C13.1944 16.6697 14.2663 16.3774 15.1459 15.7537L16.2126 16.8204C14.9778 17.3482 13.6488 17.6203 12.3059 17.6204C8.5526 17.6204 5.13927 15.527 3.10594 12.0004C4.08174 10.2725 5.48709 8.82582 7.18594 7.80035L8.77927 9.38702Z" fill="#101112"/>
</svg>

<svg width="24" height="24" fill="none" xmlns="http://www.w3.org/2000/svg"><path d="M16.794 13.6a4.574 4.574 0 00-4.287-6.173c-.539 0-1.074.097-1.58.286l1.074 1.107A3.247 3.247 0 0115.748 12c0 .165-.014.33-.04.493l1.086 1.107z" fill="#101112"/><path d="M22.86 11.686C20.614 7.533 16.674 5.02 12.314 5.02a11.213 11.213 0 00-3.494.566l1.074 1.08a9.853 9.853 0 012.42-.313c3.753 0 7.166 2.093 9.2 5.62a11.832 11.832 0 01-2.914 3.4l.947.947a13.286 13.286 0 003.333-4l.174-.32-.194-.314zM3.246 3.854l2.973 2.973a13.013 13.013 0 00-4.46 4.86L1.586 12l.173.32c2.247 4.154 6.187 6.667 10.547 6.667 1.702 0 3.381-.385 4.913-1.127l3.334 3.334 1.166-1L4.386 2.86l-1.14.994zm6.5 6.5l4.433 4.433c-.5.31-1.077.476-1.666.48A3.247 3.247 0 019.266 12a3.207 3.207 0 01.48-1.646zm-.967-.967a4.567 4.567 0 006.367 6.367l1.067 1.066a9.942 9.942 0 01-3.907.8c-3.753 0-7.167-2.093-9.2-5.62a11.526 11.526 0 014.08-4.2l1.593 1.587z" fill="#101112"/></svg>
